svg/nature/flower_4_fill.svg

<?xml version="1.0" encoding="UTF-8"?>
<svg width="24px" height="24px" viewBox="0 0 24 24" version="1.1" xmlns="http://www.w3.org/2000/svg" xmlns:xlink="http://www.w3.org/1999/xlink">
    <title>flower_4_fill</title>
    <g id="Icon" stroke="none" stroke-width="1" fill="none" fill-rule="evenodd">
        <g id="Nature" transform="translate(-240.000000, -146.000000)" fill-rule="nonzero">
            <g id="flower_4_fill" transform="translate(240.000000, 146.000000)">
                <path d="M24,0 L24,24 L0,24 L0,0 L24,0 Z M12.5935,23.2578 L12.5819,23.2595 L12.5109,23.295 L12.4919,23.2987 L12.4767,23.295 L12.4057,23.2595 C12.3958,23.2564 12.387,23.259 12.3821,23.2649 L12.378,23.2758 L12.3609,23.7031 L12.3659,23.7235 L12.3769,23.7357 L12.4805,23.8097 L12.4953,23.8136 L12.5071,23.8097 L12.6107,23.7357 L12.6233,23.7197 L12.6267,23.7031 L12.6096,23.2758 C12.6076,23.2657 12.601,23.2593 12.5935,23.2578 Z M12.8584,23.1453 L12.8445,23.1473 L12.6598,23.2397 L12.6499,23.2499 L12.6472,23.2611 L12.6651,23.6906 L12.6699,23.7034 L12.6784,23.7105 L12.8793,23.8032 C12.8914,23.8069 12.9022,23.803 12.9078,23.7952 L12.9118,23.7812 L12.8777,23.1665 C12.8753,23.1546 12.8674,23.147 12.8584,23.1453 Z M12.143,23.1473 C12.1332,23.1424 12.1222,23.1453 12.1156,23.1526 L12.1099,23.1665 L12.0758,23.7812 C12.0751,23.7927 12.0828,23.8019 12.0926,23.8046 L12.1083,23.8032 L12.3092,23.7105 L12.3186,23.7024 L12.3225,23.6906 L12.3404,23.2611 L12.3372,23.2485 L12.3278,23.2397 L12.143,23.1473 Z" id="MingCute"></path>
                <path d="M10.4987,2.60101 C10.8905,2.29897 11.4208,2 12,2 C12.5792,2 13.1095,2.29897 13.5013,2.60101 C13.9249,2.9277 14.3373,3.37419 14.6978,3.89613 C14.8811,4.16149 15.0555,4.45297 15.2136,4.76678 C16.3365,4.17797 17.4321,4.01395 18.1589,3.98001 C19.2871,3.92734 20,4.87586 20,5.79827 L20,8.00019 C20,12.0798 16.9463,15.4462 13,15.9383 L13,19.0083 C14.0764,18.3393 15.662,17.5537 17.7575,17.0299 C18.2933,16.8959 18.8362,17.2217 18.9701,17.7575 C19.1041,18.2933 18.7783,18.8362 18.2425,18.9701 C15.0245,19.7746 13.2074,21.2593 12.7934,21.6278 C12.5598,21.8358 12.3293,22 12,22 C11.6746,22 11.444,21.8399 11.2129,21.6334 C10.8116,21.2749 8.99232,19.7789 5.75746,18.9701 C5.22167,18.8362 4.89591,18.2933 5.02986,17.7575 C5.16381,17.2217 5.70674,16.8959 6.24254,17.0299 C8.33797,17.5537 9.92364,18.3393 11,19.0083 L11,15.9383 C7.05369,15.4462 4,12.0798 4,8.00019 L4,5.78417 C4,4.87496 4.69196,3.93424 5.80673,3.96458 C6.54082,3.98457 7.66072,4.13183 8.80633,4.72746 C8.95914,4.42859 9.12659,4.15037 9.30221,3.89613 C9.66273,3.37419 10.0751,2.9277 10.4987,2.60101 Z" id="路径" fill="#09244B"></path>
            </g>
        </g>
    </g>
</svg>

<svg xmlns="http://www.w3.org/2000/svg" width="24" height="24"><g fill="none" fill-rule="nonzero"><path d="M24 0v24H0V0h24ZM12.594 23.258l-.012.002-.071.035-.02.004-.014-.004-.071-.036c-.01-.003-.019 0-.024.006l-.004.01-.017.428.005.02.01.013.104.074.015.004.012-.004.104-.074.012-.016.004-.017-.017-.427c-.002-.01-.009-.017-.016-.018Zm.264-.113-.014.002-.184.093-.01.01-.003.011.018.43.005.012.008.008.201.092c.012.004.023 0 .029-.008l.004-.014-.034-.614c-.003-.012-.01-.02-.02-.022Zm-.715.002a.023.023 0 0 0-.027.006l-.006.014-.034.614c0 .012.007.02.017.024l.015-.002.201-.093.01-.008.003-.011.018-.43-.003-.012-.01-.01-.184-.092Z"/><path fill="#09244B" d="M10.499 2.601C10.89 2.299 11.42 2 12 2c.58 0 1.11.299 1.501.601.424.327.836.773 1.197 1.295.183.265.357.557.516.87a7.105 7.105 0 0 1 2.945-.786C19.287 3.927 20 4.876 20 5.798V8a8.001 8.001 0 0 1-7 7.938v3.07c1.076-.669 2.662-1.454 4.758-1.978a1 1 0 1 1 .485 1.94c-3.218.805-5.036 2.29-5.45 2.658-.233.208-.464.372-.793.372-.325 0-.556-.16-.787-.367-.401-.358-2.22-1.854-5.456-2.663a1 1 0 1 1 .486-1.94c2.095.524 3.68 1.31 4.757 1.978v-3.07A8.001 8.001 0 0 1 4 8V5.784c0-.909.692-1.85 1.807-1.82.734.02 1.854.168 3 .763.152-.298.32-.577.495-.83.36-.523.773-.97 1.197-1.296Z"/></g></svg>
